X:1
T:Title
%%score { ( 1 3 ) | ( 2 4 ) }
L:1/8
Q:1/4=108
M:4/4
K:G
V:1 treble nm="Grand Piano"
V:3 treble 
V:2 bass 
V:4 bass 
V:1
 G2 D>D A2 D>D | B>A G>B d4 | [DAc]>[DBd] [DAc]>[DGB] [^CA]>[CGB] [CEA]>[A,EG] | %3
w: Chas.~H.~Gabriel * * * * *|||
 [A,DF]2 [A,EG]2 [DFA]4 | G2 D>D A2 D>D | B>A G>[DGB] [CGc]4 | %6
w: |||
 [Ge]>[Ge] [Ge]>[Ge] [Gd]>[DGB] [^CG]>[CGA] | [DGB]2 [CDA]2 [B,DG]4 | A4 d4 | B4 d4 | %10
w: ||||
 [G^c]>[Gc] [Gc]>[Gc] [Gc]>[GA] [GB]>[Gc] | d8 | d>e d>B G2 B2 | [Ec]>[EB] [EA]>[EG] F2 ED | %14
w: ||||
 G>A B>[Ge] [Fd]>[Fc] [DGB]>[CDA] | [B,DG]6 z2 |] %16
w: ||
V:2
 G,2 D,>D, A,2 D,>D, | B,>A, G,>B, D4 | D,>D, D,>D, E,>E, A,,>A,, | D,2 D,2 D,4 | %4
 G,2 D,>D, A,2 D,>D, | B,>A, G,>=F, E,4 | [^C,_B,]>[C,B,] [C,B,]>[C,B,] [D,=B,]>D, E,>E, | %7
 D,2 D,2 G,,4 | D,2 D,2 [D,A,]2 [F,D]2 | [G,DG]2 [G,D]2 [G,B,G]2[K:bass] [G,B,]2 | %10
 [E,A,]>[E,A,] [E,A,]>[E,A,] [A,,A,]>[A,,A,] [A,,A,]>[A,,A,] | A,2 z2 z4 | %12
 [G,B,G]>[G,CG] [G,B,G]>[G,DG] [G,B,D]2 [G,=F]2 | %13
 [C,G,]>[C,G,] [C,A,]>[^C,A,] [D,A,D]2 [E,A,^C][F,=C] | %14
 [G,B,D]>[G,CD] [G,DG]>[K:bass][C,C] [D,A,]>[D,A,] D,>D, | G,,6 z2 |] %16
V:3
 x8 | x8 | x8 | x8 | x8 | x8 | x8 | x8 | [DF]2 [DF]2 F2 A2 | z2 G2 z2 G2 | x8 | F2 G2 A4 | x8 | %13
 x8 | x8 | x8 |] %16
V:4
 x8 | x8 | x8 | x8 | x8 | x8 | x8 | x8 | x8 | x6[K:bass] x2 | x8 | D,2- [D,-B,]2 [D,C]4 | x8 | x8 | %14
 x7/2[K:bass] x9/2 | x8 |] %16

